images/proposal-item1.svg

<svg width="126" height="126" viewBox="0 0 126 126" fill="none" xmlns="http://www.w3.org/2000/svg">
<path d="M51.4328 15.5691C49.5743 15.5821 47.7397 15.8462 45.9589 16.3785C44.1921 16.9072 42.5646 17.6736 41.0875 18.6495C42.7012 22.7502 46.821 27.9556 51.5931 32.3992C56.5757 37.0391 62.2889 40.9812 65.9785 42.759L66.0218 42.7799L66.0642 42.8014C69.4548 44.5433 71.8552 47.2848 73.2408 50.309C74.1331 52.2563 74.6529 54.296 74.9559 56.3695C77.6727 54.2504 80.5366 52.5535 83.4482 51.3219C83.2267 47.4954 82.3849 43.4829 80.8518 39.4652C77.6363 31.039 72.0201 24.2553 65.6596 20.1183C61.0881 17.1448 56.1824 15.5361 51.4328 15.5691ZM35.4647 24.4102C34.3962 26.0683 33.5199 27.9169 32.8541 29.9247C30.6305 36.6276 30.8109 45.0359 34.0265 53.4626C35.9726 58.5624 38.7991 63.0591 42.1372 66.7331C45.4258 67.717 48.6784 69.2371 51.7338 71.2998C54.0944 72.8937 56.1981 74.7182 58.0211 76.7025C58.616 76.8471 59.2112 76.9704 59.8058 77.0674C60.9385 74.1127 62.4087 71.1732 64.2204 68.3214C65.3166 66.5945 66.5178 64.9364 67.817 63.3565C67.832 62.2715 67.8233 61.2201 67.7716 60.2163C67.6316 57.5016 67.1969 55.1798 66.4007 53.4423C65.6049 51.7048 64.5679 50.491 62.6264 49.4937L62.7121 49.536C57.931 47.2319 51.9605 43.0215 46.4657 37.9049C42.0979 33.8381 38.0461 29.2829 35.4647 24.4102ZM93.9285 52.7746C91.1058 52.7976 88.1196 53.4532 85.0985 54.7073C78.6535 57.3827 72.182 62.8054 67.3955 70.3387C64.9468 74.1928 63.1871 78.2111 62.0931 82.1511C66.3877 89.3565 67.4425 97.6331 64.3487 104.584C64.8488 105.298 65.407 105.97 66.0176 106.593C70.5409 102.69 75.7538 99.4575 79.4587 96.1378C81.4837 94.3238 83.0171 92.5276 83.8691 90.8171C84.7211 89.1061 85.0143 87.5366 84.5713 85.3996L84.5453 85.2752L84.5282 85.1498C82.8453 72.9673 85.7978 65.8079 90.1006 61.428C93.5605 57.9066 97.0046 56.0519 99.3805 53.6032C97.6639 53.0327 95.8336 52.7589 93.9285 52.7746ZM105.788 57.7804C102.312 62.1001 98.0274 64.0953 95.4673 66.7011C92.5256 69.6954 90.4949 73.2998 91.9741 84.0685C92.6863 87.7299 92.0604 91.2463 90.6036 94.1713C89.1204 97.1487 86.9025 99.5697 84.4793 101.741C80.7985 105.039 76.5525 107.863 73.0006 110.619C77.0288 111.665 81.615 111.159 86.2847 109.22C92.7298 106.545 99.2016 101.122 103.988 93.5886C108.775 86.0551 110.934 77.8924 110.618 70.9215C110.377 65.5903 108.73 61.0224 105.788 57.7806L105.788 57.7804ZM91.9741 84.0685C91.9616 84.0027 91.9515 83.9373 91.9378 83.8715L91.9812 84.1208C91.9792 84.1033 91.9769 84.0859 91.9743 84.0685H91.9741ZM33.4119 69.142C29.5701 69.1073 25.9511 69.9498 22.9052 71.6095C22.9261 71.6101 22.9443 71.6116 22.9652 71.6122C24.7687 71.676 27.0328 71.4632 29.6397 71.8191C32.2464 72.1752 35.3001 73.3589 37.6133 75.9765C39.9268 78.5938 41.513 82.3045 42.6179 87.6336L42.644 87.7577L42.6611 87.8835C43.1738 91.6018 45.5422 93.7529 49.6483 95.7669C53.1517 97.4853 57.6497 98.7125 61.9192 99.9618C63.8314 91.3934 59.2944 80.943 49.6289 74.4176C44.4172 70.8992 38.7044 69.1899 33.4123 69.142H33.4119ZM16.4679 77.8038C11.1868 86.9009 15.4221 100.25 26.9392 108.025C38.2714 115.676 51.9726 114.771 58.5669 106.834C54.7141 105.736 50.3463 104.489 46.3351 102.522C41.1627 99.985 36.2328 95.7217 35.238 89.1007C34.2907 84.5657 33.0248 82.1457 31.9757 80.9586C30.9225 79.766 30.1012 79.4759 28.6215 79.2742C27.1419 79.0719 25.1085 79.2163 22.7004 79.1315C20.8237 79.0654 18.6219 78.7961 16.4679 77.804V77.8038ZM35.2382 89.1005C35.2428 89.1214 35.2474 89.1406 35.2518 89.1617L35.2085 88.9118C35.2173 88.9753 35.2288 89.0371 35.2384 89.1007L35.2382 89.1005Z" fill="white"/>
</svg>

<svg width="126" height="126" fill="none" xmlns="http://www.w3.org/2000/svg"><path d="M51.433 15.57a19.536 19.536 0 0 0-5.474.808 18.344 18.344 0 0 0-4.872 2.271c1.614 4.101 5.734 9.307 10.506 13.75 4.983 4.64 10.696 8.582 14.385 10.36l.044.02.042.022a15.818 15.818 0 0 1 7.177 7.508c.892 1.947 1.412 3.987 1.715 6.06 2.717-2.119 5.58-3.816 8.492-5.047-.221-3.827-1.063-7.84-2.596-11.857-3.216-8.426-8.832-15.21-15.192-19.347-4.572-2.973-9.478-4.582-14.227-4.549Zm-15.968 8.84a24.248 24.248 0 0 0-2.61 5.515c-2.224 6.703-2.044 15.11 1.172 23.538 1.946 5.1 4.772 9.596 8.11 13.27a35.235 35.235 0 0 1 9.597 4.567 35.548 35.548 0 0 1 6.287 5.403c.595.144 1.19.267 1.785.364a49.14 49.14 0 0 1 4.414-8.746 50.034 50.034 0 0 1 3.597-4.965 48.437 48.437 0 0 0-.045-3.14c-.14-2.714-.575-5.036-1.371-6.774-.796-1.737-1.833-2.951-3.775-3.948l.086.042c-4.781-2.304-10.752-6.514-16.246-11.631-4.368-4.067-8.42-8.622-11.001-13.495Zm58.463 28.365c-2.822.023-5.808.678-8.83 1.932-6.445 2.676-12.916 8.098-17.703 15.632-2.448 3.854-4.208 7.872-5.302 11.812 4.295 7.206 5.35 15.482 2.256 22.433.5.714 1.058 1.386 1.669 2.009 4.523-3.903 9.736-7.136 13.44-10.455 2.026-1.814 3.56-3.61 4.411-5.32.852-1.712 1.145-3.281.702-5.418l-.026-.125-.017-.125c-1.683-12.183 1.27-19.342 5.573-23.722 3.46-3.521 6.904-5.376 9.28-7.825-1.717-.57-3.547-.844-5.453-.828Zm11.86 5.005c-3.476 4.32-7.76 6.315-10.32 8.921-2.942 2.994-4.973 6.599-3.494 17.368a15.817 15.817 0 0 1-1.37 10.102c-1.484 2.978-3.701 5.399-6.125 7.57-3.68 3.298-7.927 6.122-11.478 8.878 4.028 1.046 8.614.54 13.284-1.399 6.445-2.675 12.917-8.098 17.703-15.631 4.787-7.534 6.946-15.697 6.63-22.668-.241-5.33-1.888-9.899-4.83-13.14ZM91.974 84.068l-.036-.197.043.25a1.526 1.526 0 0 0-.007-.052ZM33.412 69.142c-3.842-.035-7.46.808-10.507 2.468l.06.002c1.804.064 4.068-.149 6.675.207 2.606.356 5.66 1.54 7.973 4.157 2.314 2.618 3.9 6.329 5.005 11.658l.026.124.017.126c.513 3.718 2.881 5.869 6.987 7.883 3.504 1.718 8.002 2.946 12.271 4.195 1.912-8.569-2.625-19.019-12.29-25.544-5.212-3.519-10.925-5.228-16.217-5.276Zm-16.944 8.662c-5.281 9.097-1.046 22.446 10.471 30.221 11.332 7.651 25.034 6.746 31.628-1.191-3.853-1.098-8.22-2.345-12.232-4.312-5.172-2.537-10.102-6.8-11.097-13.421-.947-4.535-2.213-6.955-3.262-8.142-1.053-1.193-1.875-1.483-3.354-1.685-1.48-.202-3.514-.058-5.922-.142-1.876-.067-4.078-.336-6.232-1.328ZM35.238 89.1l.014.062-.044-.25.03.189Z" fill="#fff"/></svg>
